assets/icons/traton/info.svg

<svg xmlns="http://www.w3.org/2000/svg" width="32" height="32" viewBox="0 0 32 32" fill="none">
<path d="M16 30C8.28027 30 2 23.7197 2 16C2 8.28027 8.28027 2 16 2C23.7197 2 30 8.28027 30 16C30 23.7197 23.7197 30 16 30ZM16 4C9.3833 4 4 9.3833 4 16C4 22.6167 9.3833 28 16 28C22.6172 28 28 22.6167 28 16C28 9.3833 22.6172 4 16 4Z" fill="#001D21" />
<path d="M17 13H15V23H17V13Z" fill="#001D21" />
<path d="M17 9H15V11H17V9Z" fill="#001D21" />
</svg>

<svg viewBox="0 0 32 32" fill="none" xmlns="http://www.w3.org/2000/svg"><path d="M16 30C8.28 30 2 23.72 2 16S8.28 2 16 2s14 6.28 14 14-6.28 14-14 14Zm0-26C9.38 4 4 9.38 4 16s5.38 12 12 12 12-5.38 12-12S22.62 4 16 4Z" fill="#001D21"/><path d="M17 13h-2v10h2V13ZM17 9h-2v2h2V9Z" fill="#001D21"/></svg>
